X:4
T:kerry reel
R:reel
M:4/4
Q:110
K:Em
d^c|:B~E3 BAFB|ABde fded|B~E3 BAFA|BFAF EFGA|
|B3B {^c}BAFB|ABde fded|B~E3 BAFA|BFAF E3B:|
Bdef g2fe|d~B3 dBAd|Bdef g2fe|dBAF E2ef|
~g3a gfeg|~f3g fedB|ABde fded|1 BFAF EFGA:|2 BFAF E4|
